apps/homepage/src/assets/home/keycap/black-keycap-hover.svg

<svg width="290" height="291" viewBox="0 0 290 291" fill="none" xmlns="http://www.w3.org/2000/svg">
<rect y="1" width="290" height="290" rx="50" fill="url(#paint0_radial_6839_6130)"/>
<mask id="mask0_6839_6130" style="mask-type:alpha" maskUnits="userSpaceOnUse" x="0" y="0" width="290" height="289">
<rect x="290" y="289" width="290" height="289" rx="50" transform="rotate(-180 290 289)" fill="url(#paint1_radial_6839_6130)"/>
</mask>
<g mask="url(#mask0_6839_6130)">
<g filter="url(#filter0_f_6839_6130)">
<path d="M293.864 288.703L293.864 -14L-3.01074 288.703L293.864 288.703Z" fill="black"/>
</g>
<g filter="url(#filter1_f_6839_6130)">
<path d="M211.119 236.585L197.682 236.585C197.682 236.585 235.182 289.216 236.744 289.216L241.185 289.216C244.735 289.216 247.602 289.216 252.369 289.216C254.685 289.216 255.777 288.946 257.994 288.282C260.772 287.449 261.912 287.289 264.557 286.102C268.207 284.464 270.244 282.772 272.994 279.873C275.46 277.274 276.902 275.852 278.619 272.71C280.137 269.934 280.509 268.339 281.119 265.236C281.706 262.252 281.744 260.491 281.744 257.451L281.744 230.98L238.932 207L238.932 211.048L236.744 217.899L232.994 223.194L228.619 227.865L221.744 233.782L211.119 236.585Z" fill="url(#paint2_linear_6839_6130)" fill-opacity="0.5"/>
</g>
<g filter="url(#filter2_f_6839_6130)">
<path d="M95.3301 61.9733L108.768 61.9733C108.768 61.9733 51.5801 -1.20052e-05 50.0175 -1.35184e-08L45.577 4.61626e-05C42.0262 8.89136e-05 39.1598 0.000123426 34.3925 4.43549e-05C32.077 5.94916e-06 30.9849 0.269493 28.7676 0.934207C25.9897 1.76695 24.8501 1.92731 22.205 3.1141C18.5547 4.75188 16.5181 6.44403 13.7675 9.34255C11.3013 11.9414 9.85926 13.3641 8.14258 16.5053C6.62498 19.2823 6.25265 20.8768 5.64258 23.9798C5.05597 26.9636 5.01758 28.7246 5.01758 31.765L5.01758 58.2359L67.5176 91.5585L67.5176 87.51L69.7051 80.6587L73.4551 75.3645L77.8301 70.6932L84.7051 64.7762L95.3301 61.9733Z" fill="url(#paint3_linear_6839_6130)" fill-opacity="0.3"/>
</g>
</g>
<rect x="40.5" y="41.5" width="207" height="207" rx="49.5" fill="url(#paint4_linear_6839_6130)" stroke="url(#paint5_linear_6839_6130)"/>
<mask id="mask1_6839_6130" style="mask-type:alpha" maskUnits="userSpaceOnUse" x="40" y="41" width="208" height="208">
<rect x="40.5" y="41.5" width="207" height="207" rx="49.5" fill="url(#paint6_linear_6839_6130)" stroke="url(#paint7_linear_6839_6130)"/>
</mask>
<g mask="url(#mask1_6839_6130)">
<g filter="url(#filter3_f_6839_6130)">
<rect x="42.5" y="43.5" width="203" height="203" rx="47.5" stroke="url(#paint8_linear_6839_6130)" stroke-width="5"/>
</g>
</g>
<defs>
<filter id="filter0_f_6839_6130" x="-21.0107" y="-32" width="332.875" height="338.702" filterUnits="userSpaceOnUse" color-interpolation-filters="sRGB">
<feFlood flood-opacity="0" result="BackgroundImageFix"/>
<feBlend mode="normal" in="SourceGraphic" in2="BackgroundImageFix" result="shape"/>
<feGaussianBlur stdDeviation="9" result="effect1_foregroundBlur_6839_6130"/>
</filter>
<filter id="filter1_f_6839_6130" x="187.682" y="197" width="104.062" height="102.216" filterUnits="userSpaceOnUse" color-interpolation-filters="sRGB">
<feFlood flood-opacity="0" result="BackgroundImageFix"/>
<feBlend mode="normal" in="SourceGraphic" in2="BackgroundImageFix" result="shape"/>
<feGaussianBlur stdDeviation="5" result="effect1_foregroundBlur_6839_6130"/>
</filter>
<filter id="filter2_f_6839_6130" x="-2.98242" y="-8" width="119.75" height="107.559" filterUnits="userSpaceOnUse" color-interpolation-filters="sRGB">
<feFlood flood-opacity="0" result="BackgroundImageFix"/>
<feBlend mode="normal" in="SourceGraphic" in2="BackgroundImageFix" result="shape"/>
<feGaussianBlur stdDeviation="4" result="effect1_foregroundBlur_6839_6130"/>
</filter>
<filter id="filter3_f_6839_6130" x="30" y="31" width="228" height="228" filterUnits="userSpaceOnUse" color-interpolation-filters="sRGB">
<feFlood flood-opacity="0" result="BackgroundImageFix"/>
<feBlend mode="normal" in="SourceGraphic" in2="BackgroundImageFix" result="shape"/>
<feGaussianBlur stdDeviation="5" result="effect1_foregroundBlur_6839_6130"/>
</filter>
<radialGradient id="paint0_radial_6839_6130" cx="0" cy="0" r="1" gradientUnits="userSpaceOnUse" gradientTransform="translate(145 146) rotate(-90) scale(145)">
<stop stop-color="#1F1F1F"/>
<stop offset="1"/>
</radialGradient>
<radialGradient id="paint1_radial_6839_6130" cx="0" cy="0" r="1" gradientUnits="userSpaceOnUse" gradientTransform="translate(435 433.5) rotate(-90) scale(144.5 145)">
<stop stop-color="#BDBDBD"/>
<stop offset="1" stop-color="#525252"/>
</radialGradient>
<linearGradient id="paint2_linear_6839_6130" x1="237.682" y1="282.364" x2="275.652" y2="236.767" gradientUnits="userSpaceOnUse">
<stop stop-color="#1F1F1F"/>
<stop offset="0.543269" stop-color="#343434"/>
<stop offset="1" stop-color="#1F1F1F"/>
</linearGradient>
<linearGradient id="paint3_linear_6839_6130" x1="60.3301" y1="16.1943" x2="15.4855" y2="61.194" gradientUnits="userSpaceOnUse">
<stop stop-color="#1F1F1F"/>
<stop offset="0.466346" stop-color="#525252"/>
<stop offset="1" stop-color="#1F1F1F"/>
</linearGradient>
<linearGradient id="paint4_linear_6839_6130" x1="271.908" y1="145" x2="62.7126" y2="130.057" gradientUnits="userSpaceOnUse">
<stop/>
<stop offset="1" stop-color="#1F1F1F"/>
</linearGradient>
<linearGradient id="paint5_linear_6839_6130" x1="89.8204" y1="78.988" x2="232.431" y2="237.79" gradientUnits="userSpaceOnUse">
<stop stop-color="#1F1F1F"/>
<stop offset="1" stop-color="#343434"/>
</linearGradient>
<linearGradient id="paint6_linear_6839_6130" x1="271.908" y1="145" x2="62.7126" y2="130.057" gradientUnits="userSpaceOnUse">
<stop stop-color="#FFA726"/>
<stop offset="1" stop-color="#F86902"/>
</linearGradient>
<linearGradient id="paint7_linear_6839_6130" x1="89.8204" y1="78.988" x2="232.431" y2="237.79" gradientUnits="userSpaceOnUse">
<stop stop-color="#1F1F1F"/>
<stop offset="1" stop-color="#343434"/>
</linearGradient>
<linearGradient id="paint8_linear_6839_6130" x1="89.8204" y1="78.988" x2="232.431" y2="237.79" gradientUnits="userSpaceOnUse">
<stop stop-color="#1F1F1F"/>
<stop offset="1" stop-color="#1F1F1F"/>
</linearGradient>
</defs>
</svg>

<svg xmlns="http://www.w3.org/2000/svg" fill="none" viewBox="0 0 290 291"><rect width="290" height="290" y="1" fill="url(#a)" rx="50"/><mask id="c" width="290" height="289" x="0" y="0" maskUnits="userSpaceOnUse" style="mask-type:alpha"><rect width="290" height="289" x="290" y="289" fill="url(#b)" rx="50" transform="rotate(-180 290 289)"/></mask><g mask="url(#c)"><g filter="url(#d)"><path fill="#000" d="M293.864 288.703V-14L-3.011 288.703z"/></g><g filter="url(#e)"><path fill="url(#f)" fill-opacity=".5" d="M211.119 236.585h-13.437s37.5 52.631 39.062 52.631h15.625c2.316 0 3.408-.27 5.625-.934 2.778-.833 3.918-.993 6.563-2.18 3.65-1.638 5.687-3.33 8.437-6.229 2.466-2.599 3.908-4.021 5.625-7.163 1.518-2.776 1.89-4.371 2.5-7.474.587-2.984.625-4.745.625-7.785V230.98L238.932 207v4.048l-2.188 6.851-3.75 5.295-4.375 4.671-6.875 5.917z"/></g><g filter="url(#g)"><path fill="url(#h)" fill-opacity=".3" d="M95.33 61.973h13.438S51.58 0 50.018 0H34.393c-2.316 0-3.408.27-5.625.934-2.778.833-3.918.993-6.563 2.18-3.65 1.638-5.687 3.33-8.437 6.229-2.467 2.598-3.909 4.021-5.625 7.162-1.518 2.777-1.89 4.372-2.5 7.475-.587 2.984-.625 4.745-.625 7.785v26.47l62.5 33.323V87.51l2.187-6.851 3.75-5.294 4.375-4.672 6.875-5.917z"/></g></g><rect width="207" height="207" x="40.5" y="41.5" fill="url(#i)" stroke="url(#j)" rx="49.5"/><mask id="m" width="208" height="208" x="40" y="41" maskUnits="userSpaceOnUse" style="mask-type:alpha"><rect width="207" height="207" x="40.5" y="41.5" fill="url(#k)" stroke="url(#l)" rx="49.5"/></mask><g filter="url(#n)" mask="url(#m)"><rect width="203" height="203" x="42.5" y="43.5" stroke="url(#o)" stroke-width="5" rx="47.5"/></g><defs><linearGradient id="f" x1="237.682" x2="275.652" y1="282.364" y2="236.767" gradientUnits="userSpaceOnUse"><stop stop-color="#1f1f1f"/><stop offset=".543" stop-color="#343434"/><stop offset="1" stop-color="#1f1f1f"/></linearGradient><linearGradient id="h" x1="60.33" x2="15.486" y1="16.194" y2="61.194" gradientUnits="userSpaceOnUse"><stop stop-color="#1f1f1f"/><stop offset=".466" stop-color="#525252"/><stop offset="1" stop-color="#1f1f1f"/></linearGradient><linearGradient id="i" x1="271.908" x2="62.713" y1="145" y2="130.057" gradientUnits="userSpaceOnUse"><stop/><stop offset="1" stop-color="#1f1f1f"/></linearGradient><linearGradient id="j" x1="89.82" x2="232.431" y1="78.988" y2="237.79" gradientUnits="userSpaceOnUse"><stop stop-color="#1f1f1f"/><stop offset="1" stop-color="#343434"/></linearGradient><linearGradient id="k" x1="271.908" x2="62.713" y1="145" y2="130.057" gradientUnits="userSpaceOnUse"><stop stop-color="#ffa726"/><stop offset="1" stop-color="#f86902"/></linearGradient><linearGradient id="l" x1="89.82" x2="232.431" y1="78.988" y2="237.79" gradientUnits="userSpaceOnUse"><stop stop-color="#1f1f1f"/><stop offset="1" stop-color="#343434"/></linearGradient><linearGradient id="o" x1="89.82" x2="232.431" y1="78.988" y2="237.79" gradientUnits="userSpaceOnUse"><stop stop-color="#1f1f1f"/><stop offset="1" stop-color="#1f1f1f"/></linearGradient><filter id="d" width="332.875" height="338.702" x="-21.011" y="-32" color-interpolation-filters="sRGB" filterUnits="userSpaceOnUse"><feFlood flood-opacity="0" result="BackgroundImageFix"/><feBlend in="SourceGraphic" in2="BackgroundImageFix" result="shape"/><feGaussianBlur result="effect1_foregroundBlur_6839_6130" stdDeviation="9"/></filter><filter id="e" width="104.062" height="102.216" x="187.682" y="197" color-interpolation-filters="sRGB" filterUnits="userSpaceOnUse"><feFlood flood-opacity="0" result="BackgroundImageFix"/><feBlend in="SourceGraphic" in2="BackgroundImageFix" result="shape"/><feGaussianBlur result="effect1_foregroundBlur_6839_6130" stdDeviation="5"/></filter><filter id="g" width="119.75" height="107.559" x="-2.982" y="-8" color-interpolation-filters="sRGB" filterUnits="userSpaceOnUse"><feFlood flood-opacity="0" result="BackgroundImageFix"/><feBlend in="SourceGraphic" in2="BackgroundImageFix" result="shape"/><feGaussianBlur result="effect1_foregroundBlur_6839_6130" stdDeviation="4"/></filter><filter id="n" width="228" height="228" x="30" y="31" color-interpolation-filters="sRGB" filterUnits="userSpaceOnUse"><feFlood flood-opacity="0" result="BackgroundImageFix"/><feBlend in="SourceGraphic" in2="BackgroundImageFix" result="shape"/><feGaussianBlur result="effect1_foregroundBlur_6839_6130" stdDeviation="5"/></filter><radialGradient id="a" cx="0" cy="0" r="1" gradientTransform="matrix(0 -145 145 0 145 146)" gradientUnits="userSpaceOnUse"><stop stop-color="#1f1f1f"/><stop offset="1"/></radialGradient><radialGradient id="b" cx="0" cy="0" r="1" gradientTransform="matrix(0 -144.5 145 0 435 433.5)" gradientUnits="userSpaceOnUse"><stop stop-color="#bdbdbd"/><stop offset="1" stop-color="#525252"/></radialGradient></defs></svg>
